X: 939
T: Sugarfoot Rag
C:Traditional, Arr. Sam Bush
B: jims roots
M:4/4
L:1/8
Q: 1/4=100
K:Amaj
V:1 
fg | "A"agab afea | "G"=gfga ged2 | "A"=c^cef =cBAF | "E"EFAB "A"A2fg |
"A"agab afea | "G"=gfga ged2 | "A"=c^c2f e=cBA | "E"EFAB "A"A2A2 ||
"A"[a2c2][a2c2] BAEA | EFAc BAFA | =c^ce2 =cBAF | "E"EFAB "A"A2A2 |
"A"[a2c2][a2c2] BAEA | EFAc BAFA |=c^ce2 =cBAF | "E"EFAB "A"A4 | 
% abcbook-tune_id 6298c2978949c313c0c199f0


% abcbook-boost 0
% abcbook-tablature 
% abcbook-transpose 
% abcbook-lastupdated 1654178455571
% abcbook-soundfonts 
% abcbook-repeats 1


